public/img/leaderboard.svg

<svg xmlns="http://www.w3.org/2000/svg" width="24" height="24" fill="none" viewBox="0 0 24 24">
    <g clip-path="url(#a)">
        <path fill="#000" d="M17 22H7a1 1 0 0 0 0 2h10a1 1 0 0 0 0-2zm4-22H3C1.346 0 0 1.346 0 3v6c0 2.735 2.21 4.958 4.937 4.994.87 1.65 2.291 2.994 4.063 3.714V20h6v-2.292c1.773-.72 3.193-2.064 4.063-3.714C21.79 13.958 24 11.735 24 9V3c0-1.654-1.346-3-3-3zM2 9V3c0-.551.449-1 1-1h1v8.294c0 .538.074 1.062.18 1.578A2.996 2.996 0 0 1 2 9zm13.546-1.666l-1.637 1.288.685 2.146a.537.537 0 0 1-.838.588L11.999 10l-1.767 1.356a.537.537 0 0 1-.837-.587l.686-2.148-1.628-1.288a.535.535 0 0 1 .333-.955h2.023l.677-2.043a.534.534 0 0 1 .508-.367h.001c.23 0 .434.147.508.365l.686 2.046h2.026a.536.536 0 0 1 .331.955zM22 9a2.996 2.996 0 0 1-2.18 2.872c.106-.515.18-1.039.18-1.578V2h1c.551 0 1 .449 1 1v6z"/>
    </g>
    <defs>
        <clipPath id="a">
            <path fill="#fff" d="M0 0h24v24H0z"/>
        </clipPath>
    </defs>
</svg>

<svg width="24" height="24" viewBox="0 0 24 24" fill="none" xmlns="http://www.w3.org/2000/svg">
<path d="M17 22H7C6.448 22 6 22.448 6 23C6 23.552 6.448 24 7 24H17C17.552 24 18 23.552 18 23C18 22.448 17.552 22 17 22ZM21 0H3C1.346 0 0 1.346 0 3V9C0 11.735 2.21 13.958 4.937 13.994C5.807 15.644 7.228 16.988 9 17.708V20H15V17.708C16.773 16.988 18.193 15.644 19.063 13.994C21.79 13.958 24 11.735 24 9V3C24 1.346 22.654 0 21 0V0ZM2 9V3C2 2.449 2.449 2 3 2H4V10.294C4 10.832 4.074 11.356 4.18 11.872C2.926 11.512 2 10.368 2 9V9ZM15.546 7.334L13.909 8.622L14.594 10.768C14.665 10.991 14.583 11.235 14.391 11.37C14.299 11.434 14.191 11.467 14.083 11.467C13.968 11.467 13.852 11.43 13.756 11.356L11.999 10L10.232 11.356C10.046 11.498 9.788 11.504 9.598 11.37C9.406 11.235 9.324 10.992 9.395 10.769L10.081 8.621L8.453 7.333C8.274 7.192 8.205 6.953 8.28 6.738C8.355 6.522 8.558 6.378 8.786 6.378H10.809L11.486 4.335C11.558 4.116 11.763 3.968 11.994 3.968H11.995C12.225 3.968 12.429 4.115 12.503 4.333L13.189 6.379H15.215C15.443 6.379 15.646 6.524 15.721 6.74C15.795 6.954 15.725 7.193 15.546 7.334V7.334ZM22 9C22 10.368 21.074 11.512 19.82 11.872C19.926 11.357 20 10.833 20 10.294V2H21C21.551 2 22 2.449 22 3V9Z" fill="#5F6368"/>
</svg>
